src/svg/close.svg

<svg width="26" height="25" viewBox="0 0 26 25" fill="none" xmlns="http://www.w3.org/2000/svg">
<path fill-rule="evenodd" clip-rule="evenodd" d="M6.29048 5.79048C6.54432 5.53664 6.95588 5.53664 7.20972 5.79048L13.0001 11.5809L18.7905 5.79048C19.0443 5.53664 19.4559 5.53664 19.7097 5.79048C19.9636 6.04432 19.9636 6.45588 19.7097 6.70972L13.9193 12.5001L19.7097 18.2905C19.9636 18.5443 19.9636 18.9559 19.7097 19.2097C19.4559 19.4636 19.0443 19.4636 18.7905 19.2097L13.0001 13.4193L7.20972 19.2097C6.95588 19.4636 6.54432 19.4636 6.29048 19.2097C6.03664 18.9559 6.03664 18.5443 6.29048 18.2905L12.0809 12.5001L6.29048 6.70972C6.03664 6.45588 6.03664 6.04432 6.29048 5.79048Z" fill="#101F33"/>
</svg>

<svg xmlns="http://www.w3.org/2000/svg" width="26" height="25" fill="none"><path fill-rule="evenodd" d="M6.29 5.79a.65.65 0 0 1 .919 0l5.79 5.79 5.79-5.79a.65.65 0 0 1 .919.919l-5.79 5.79 5.79 5.79a.65.65 0 0 1-.919.919L13 13.419l-5.79 5.79a.65.65 0 0 1-.919-.919l5.79-5.79-5.79-5.79a.65.65 0 0 1 0-.919z" fill="#101f33"/></svg>
